packages/core/src/svgs/wallets/branded/wallet-connect.svg

<svg width="24" height="24" viewBox="0 0 24 24" fill="none" xmlns="http://www.w3.org/2000/svg">
<path d="M6.09442 8.34459C9.35599 5.21847 14.644 5.21847 17.9056 8.34459L18.2981 8.72082C18.4612 8.87713 18.4612 9.13055 18.2981 9.28686L16.9554 10.5739C16.8738 10.652 16.7416 10.652 16.6601 10.5739L16.1199 10.0561C13.8445 7.87528 10.1555 7.87528 7.88012 10.0561L7.30164 10.6106C7.2201 10.6887 7.0879 10.6887 7.00636 10.6106L5.66357 9.32357C5.50049 9.16727 5.50049 8.91385 5.66357 8.75754L6.09442 8.34459ZM20.6826 11.0063L21.8777 12.1517C22.0408 12.308 22.0408 12.5615 21.8777 12.7178L16.489 17.8828C16.3259 18.0391 16.0615 18.0391 15.8984 17.8828L15.8984 17.8828L12.0739 14.217C12.0331 14.1779 11.967 14.1779 11.9262 14.217L11.9262 14.217L8.10172 17.8828C7.93865 18.0391 7.67424 18.0391 7.51116 17.8828C7.51116 17.8828 7.51116 17.8828 7.51116 17.8828L2.12231 12.7177C1.95923 12.5614 1.95923 12.308 2.12231 12.1517L3.31739 11.0062C3.48047 10.8499 3.74487 10.8499 3.90795 11.0062L7.73258 14.672C7.77335 14.7111 7.83945 14.7111 7.88022 14.672C7.88022 14.672 7.88022 14.672 7.88022 14.672L11.7047 11.0062C11.8677 10.8499 12.1321 10.8499 12.2952 11.0062C12.2952 11.0062 12.2952 11.0062 12.2952 11.0062L16.1198 14.672C16.1606 14.7111 16.2267 14.7111 16.2675 14.672L20.0921 11.0063C20.2551 10.85 20.5195 10.85 20.6826 11.0063Z" fill="#3B99FC"/>
</svg>

<svg xmlns="http://www.w3.org/2000/svg" width="24" height="24" fill="none" viewBox="0 0 24 24">
    <path fill="#3B99FC" d="M6.094 8.345c3.262-3.127 8.55-3.127 11.812 0l.392.376a.39.39 0 0 1 0 .566l-1.343 1.287a.215.215 0 0 1-.295 0l-.54-.518c-2.276-2.18-5.965-2.18-8.24 0l-.578.555a.215.215 0 0 1-.296 0L5.664 9.324a.39.39 0 0 1 0-.566zm14.589 2.661 1.195 1.146a.39.39 0 0 1 0 .566l-5.389 5.165a.43.43 0 0 1-.59 0l-3.825-3.666a.11.11 0 0 0-.148 0l-3.824 3.666a.43.43 0 0 1-.59 0l-5.39-5.165a.39.39 0 0 1 0-.566l1.195-1.146a.43.43 0 0 1 .59 0l3.826 3.666c.04.04.106.04.147 0l3.825-3.666a.43.43 0 0 1 .59 0l3.825 3.666c.04.04.107.04.147 0l3.825-3.666a.43.43 0 0 1 .59 0"/>
</svg>
